X:170
T:Sharon Shannon's Waltz
M:3/4
L:1/8
K:D
Ad|fd Ad Ad|fd Ad Ad|ge ce Ae|ge ce Af|
af df df|af df df|ge cA Bc|1 d4 Ad :|2 d3 d cB||
AF DF BF|A4 z dc B|AF DF BF|G3 d cB|
cB Ac BA|c4 z c<c B|Ac AB AG|F3 d cB|
AF DF BF|A4 z dc B|AF DF BF|G3 d cB|
cB Ac BA|c4 z c<c B|AB AG FE|1 D3 d cB :|2 D4 Ad||
